images/button-primary.svg

<svg height="60" viewBox="0 0 150 60" width="150" xmlns="http://www.w3.org/2000/svg"><g fill="none"><path d="m7.82941654 0h134.34116646c4.323019 0 7.829417 3.53281421 7.829417 7.88979866v43.43092954c0 4.3569845-3.506398 7.8897981-7.829417 7.8897981h-134.34116646c-4.32301891 0-7.82941654-3.5328136-7.82941654-7.8897981v-43.43092954c0-4.35698445 3.50639763-7.88979866 7.82941654-7.88979866z" fill="#0047dd"/><g fill="#fff"><path d="m20.8995364 27.9889646h4.816683v6.9267242c-.7520303.2500282-1.5132874.4352353-2.2883858.5556196-.7750984.1203848-1.6747665.1852065-2.6943898.1852065-2.140748 0-3.8109011-.6389631-5.0012303-1.9261479-1.1949437-1.2825549-1.7901082-3.0836893-1.7901082-5.4080306 0-1.4816522.2952756-2.7780979.8858267-3.8893371.5905512-1.1112392 1.4394685-1.9631892 2.546752-2.5558501 1.1165114-.5926609 2.4221823-.8889913 3.9124016-.8889913 1.499446 0 2.9020051.2870695 4.2076771.85195l-.6459153 1.4631316c-1.2687626-.5556196-2.4913878-.8334294-3.6724902-.8334294-1.7255161 0-3.0727122.5185783-4.0415846 1.5557348-.9596457 1.0371566-1.4394685 2.4725066-1.4394685 4.2967915 0 1.9261479.4613681 3.3892795 1.3841043 4.3893947.9319642.9908555 2.3068406 1.4816522 4.1154035 1.4816522.9827138 0 1.9423595-.1111239 2.8789371-.3333717v-4.3893947h-3.1742126z"/><path d="m36.975 35.453h-7.881v-14.262h7.881v1.483h-6.239v4.592h5.87v1.463h-5.87v5.242h6.239z"/><path d="m44.461 35.453h-1.642v-12.779h-4.484v-1.483h10.61v1.483h-4.484z"/><path d="m64.1938614 31.6560539c0 1.2594044-.4567547 2.240999-1.3656496 2.9447838-.8996681.7037848-2.1222933 1.0556772-3.6724902 1.0556772-1.6747665 0-2.9619838-.2222478-3.8570374-.6667435v-1.5927761c.5767099.2500282 1.2041705.4444956 1.8823819.5926608.6874382.1389043 1.3656496.2037272 2.0300197.2037272 1.0934421 0 1.9192913-.208357 2.4729331-.6297022.5536417-.4167141.8304626-1.0001152.8304626-1.7409413 0-.4907967-.1015004-.8936212-.2952756-1.2038425-.1983886-.3194809-.5259603-.6158114-.9781004-.8889913-.4567547-.2685501-1.1580343-.5741402-2.1038386-.907512-1.3195134-.4676462-2.2607032-1.0278968-2.8235728-1.6853794-.5674831-.6528527-.8489174-1.5001729-.8489174-2.5373294 0-1.0973484.4106174-1.9724489 1.2364666-2.6299327.8212346-.6528527 1.90545-.9815946 3.2480315-.9815946 1.402559 0 2.6943897.2685501 3.8754921.7963881l-.5167323 1.4260902c-1.1580343-.4907979-2.2883858-.7408261-3.3956693-.7408261-.8766 0-1.5594236.1944675-2.0484744.5741402-.4798228.3704131-.7197342.8982511-.7197342 1.5742555 0 .4954278.0830456.9028821.2583661 1.2223631.1845472.3102213.4890496.5926609.9227362.85195.4290721.2592892 1.0796008.5509898 1.9562008.8704707 1.4856047.5324691 2.5098425 1.1066093 3.0634842 1.7224207.5628686.6065517.8489174 1.3983087.8489174 2.3706436z"/><path d="m71.424 35.453h-1.642v-12.779h-4.485v-1.483h10.611v1.483h-4.484z"/><path d="m86.9184495 35.4526488-1.7716535-4.5375599h-5.6656004l-1.7347441 4.5375599h-1.6609252l5.5917815-14.3164646h1.3841043l5.5548721 14.3164646zm-2.2699311-6.0192121-1.6424704-4.4264361c-.2214567-.5556195-.4429134-1.2408837-.6643701-2.0557924-.1476378.6297022-.3506398 1.3149663-.6090059 2.0557924l-1.6609252 4.4264361zm7.5465837.0923044v5.9266089h-1.6424705v-14.2609026h3.8754921c1.7347441 0 3.0127335.3426315 3.8385827 1.0186359.835076.6667435 1.2549212 1.6761196 1.2549212 3.0188664 0 1.8798468-.9504177 3.1485109-2.8420275 3.8152544l3.8385829 6.4081459h-1.9377463l-3.4325787-5.9266089zm0-1.4260903h2.2514763c1.167261 0 2.0207929-.2268777 2.5652067-.6852641.5398004-.4676462.8120079-1.1668011.8120079-2.0928338 0-.9491831-.2768209-1.6298174-.8304626-2.0372718-.5536417-.4167152-1.4394685-.6297022-2.6574803-.6297022h-2.140748z"/><path d="m107.145 35.453h-1.642v-12.779h-4.484v-1.483h10.611v1.483h-4.485z"/><path d="m121.624 35.453h-7.881v-14.262h7.881v1.483h-6.238v4.592h5.869v1.463h-5.869v5.242h6.238z"/><path d="m136.05087 28.1922541c0 2.3474931-.636688 4.1439964-1.900836 5.38951-1.268763 1.2501434-3.095781 1.8705859-5.481053 1.8705859h-3.912402v-14.2609026h4.33686c2.200726 0 3.912402.6204424 5.130414 1.8520652 1.218011 1.2223631 1.827017 2.940154 1.827017 5.1487415zm-1.753199.055562c0-1.8613262-.461368-3.2642648-1.384104-4.2041882-.922736-.9352924-2.297614-1.4075696-4.115403-1.4075696h-2.399115v11.3902014h2.011565c1.956201 0 3.423351-.4861668 4.41068-1.4631315.982713-.9723337 1.476377-2.4123148 1.476377-4.3153121z"/></g></g></svg>

<svg xmlns="http://www.w3.org/2000/svg" width="150" height="60" viewBox="0 0 150 60">
  <g fill="none">
    <path fill="#0047DD" d="M7.82941654,0 L142.170583,0 C146.493602,0 150,3.53281421 150,7.88979866 L150,51.3207282 C150,55.6777127 146.493602,59.2105263 142.170583,59.2105263 L7.82941654,59.2105263 C3.50639763,59.2105263 0,55.6777127 0,51.3207282 L0,7.88979866 C0,3.53281421 3.50639763,0 7.82941654,0 Z"/>
    <path fill="#FFF" d="M20.8995364,27.9889646 L25.7162194,27.9889646 L25.7162194,34.9156888 C24.9641891,35.165717 24.202932,35.3509241 23.4278336,35.4713084 C22.6527352,35.5916932 21.7530671,35.6565149 20.7334438,35.6565149 C18.5926958,35.6565149 16.9225427,35.0175518 15.7322135,33.730367 C14.5372698,32.4478121 13.9421053,30.6466777 13.9421053,28.3223364 C13.9421053,26.8406842 14.2373809,25.5442385 14.827932,24.4329993 C15.4184832,23.3217601 16.2674005,22.4698101 17.374684,21.8771492 C18.4911954,21.2844883 19.7968663,20.9881579 21.2870856,20.9881579 C22.7865316,20.9881579 24.1890907,21.2752274 25.4947627,21.8401079 L24.8488474,23.3032395 C23.5800848,22.7476199 22.3574596,22.4698101 21.1763572,22.4698101 C19.4508411,22.4698101 18.103645,22.9883884 17.1347726,24.0255449 C16.1751269,25.0627015 15.6953041,26.4980515 15.6953041,28.3223364 C15.6953041,30.2484843 16.1566722,31.7116159 17.0794084,32.7117311 C18.0113726,33.7025866 19.386249,34.1933833 21.1948119,34.1933833 C22.1775257,34.1933833 23.1371714,34.0822594 24.073749,33.8600116 L24.073749,29.4706169 L20.8995364,29.4706169 L20.8995364,27.9889646 Z"/>
    <polygon fill="#FFF" points="36.975 35.453 29.094 35.453 29.094 21.191 36.975 21.191 36.975 22.674 30.736 22.674 30.736 27.266 36.606 27.266 36.606 28.729 30.736 28.729 30.736 33.971 36.975 33.971"/>
    <polygon fill="#FFF" points="44.461 35.453 42.819 35.453 42.819 22.674 38.335 22.674 38.335 21.191 48.945 21.191 48.945 22.674 44.461 22.674"/>
    <path fill="#FFF" d="M64.1938614,31.6560539 C64.1938614,32.9154583 63.7371067,33.8970529 62.8282118,34.6008377 C61.9285437,35.3046225 60.7059185,35.6565149 59.1557216,35.6565149 C57.4809551,35.6565149 56.1937378,35.4342671 55.2986842,34.9897714 L55.2986842,33.3969953 C55.8753941,33.6470235 56.5028547,33.8414909 57.1810661,33.9896561 C57.8685043,34.1285604 58.5467157,34.1933833 59.2110858,34.1933833 C60.3045279,34.1933833 61.1303771,33.9850263 61.6840189,33.5636811 C62.2376606,33.146967 62.5144815,32.5635659 62.5144815,31.8227398 C62.5144815,31.3319431 62.4129811,30.9291186 62.2192059,30.6188973 C62.0208173,30.2994164 61.6932456,30.0030859 61.2411055,29.729906 C60.7843508,29.4613559 60.0830712,29.1557658 59.1372669,28.822394 C57.8177535,28.3547478 56.8765637,27.7944972 56.3136941,27.1370146 C55.746211,26.4841619 55.4647767,25.6368417 55.4647767,24.5996852 C55.4647767,23.5023368 55.8753941,22.6272363 56.7012433,21.9697525 C57.5224779,21.3168998 58.6066933,20.9881579 59.9492748,20.9881579 C61.3518338,20.9881579 62.6436645,21.256708 63.8247669,21.784546 L63.3080346,23.2106362 C62.1500003,22.7198383 61.0196488,22.4698101 59.9123653,22.4698101 C59.0357653,22.4698101 58.3529417,22.6642776 57.8638909,23.0439503 C57.3840681,23.4143634 57.1441567,23.9422014 57.1441567,24.6182058 C57.1441567,25.1136336 57.2272023,25.5210879 57.4025228,25.8405689 C57.58707,26.1507902 57.8915724,26.4332298 58.325259,26.6925189 C58.7543311,26.9518081 59.4048598,27.2435087 60.2814598,27.5629896 C61.7670645,28.0954587 62.7913023,28.6695989 63.344944,29.2854103 C63.9078126,29.891962 64.1938614,30.683719 64.1938614,31.6560539 Z"/>
    <polygon fill="#FFF" points="71.424 35.453 69.782 35.453 69.782 22.674 65.297 22.674 65.297 21.191 75.908 21.191 75.908 22.674 71.424 22.674"/>
    <path fill="#FFF" d="M86.9184495,35.4526488 L85.146796,30.9150889 L79.4811956,30.9150889 L77.7464515,35.4526488 L76.0855263,35.4526488 L81.6773078,21.1361842 L83.0614121,21.1361842 L88.6162842,35.4526488 L86.9184495,35.4526488 Z M84.6485184,29.4334367 L83.006048,25.0070006 C82.7845913,24.4513811 82.5631346,23.7661169 82.3416779,22.9512082 C82.1940401,23.5809104 81.9910381,24.2661745 81.732672,25.0070006 L80.0717468,29.4334367 L84.6485184,29.4334367 Z M92.1951021,29.5257411 L92.1951021,35.45235 L90.5526316,35.45235 L90.5526316,21.1914474 L94.4281237,21.1914474 C96.1628678,21.1914474 97.4408572,21.5340789 98.2667064,22.2100833 C99.1017824,22.8768268 99.5216276,23.8862029 99.5216276,25.2289497 C99.5216276,27.1087965 98.5712099,28.3774606 96.6796001,29.0442041 L100.518183,35.45235 L98.5804367,35.45235 L95.147858,29.5257411 L92.1951021,29.5257411 Z M92.1951021,28.0996508 L94.4465784,28.0996508 C95.6138394,28.0996508 96.4673713,27.8727731 97.0117851,27.4143867 C97.5515855,26.9467405 97.823793,26.2475856 97.823793,25.3215529 C97.823793,24.3723698 97.5469721,23.6917355 96.9933304,23.2842811 C96.4396887,22.8675659 95.5538619,22.6545789 94.3358501,22.6545789 L92.1951021,22.6545789 L92.1951021,28.0996508 Z"/>
    <polygon fill="#FFF" points="107.145 35.453 105.503 35.453 105.503 22.674 101.019 22.674 101.019 21.191 111.63 21.191 111.63 22.674 107.145 22.674"/>
    <polygon fill="#FFF" points="121.624 35.453 113.743 35.453 113.743 21.191 121.624 21.191 121.624 22.674 115.386 22.674 115.386 27.266 121.255 27.266 121.255 28.729 115.386 28.729 115.386 33.971 121.624 33.971"/>
    <path fill="#FFF" d="M136.05087,28.1922541 C136.05087,30.5397472 135.414182,32.3362505 134.150034,33.5817641 C132.881271,34.8319075 131.054253,35.45235 128.668981,35.45235 L124.756579,35.45235 L124.756579,21.1914474 L129.093439,21.1914474 C131.294165,21.1914474 133.005841,21.8118898 134.223853,23.0435126 C135.441864,24.2658757 136.05087,25.9836666 136.05087,28.1922541 Z M134.297671,28.2478161 C134.297671,26.3864899 133.836303,24.9835513 132.913567,24.0436279 C131.990831,23.1083355 130.615953,22.6360583 128.798164,22.6360583 L126.399049,22.6360583 L126.399049,34.0262597 L128.410614,34.0262597 C130.366815,34.0262597 131.833965,33.5400929 132.821294,32.5631282 C133.804007,31.5907945 134.297671,30.1508134 134.297671,28.2478161 Z"/>
  </g>
</svg>
